plugins/elevenlabs-batch-calling/icon.svg

<?xml version="1.0" encoding="UTF-8" standalone="no"?>
<svg
   version="1.1"
   width="600"
   height="600"
   style="clip-rule:evenodd;fill-rule:evenodd;image-rendering:optimizeQuality;shape-rendering:geometricPrecision;text-rendering:geometricPrecision"
   id="svg23"
   xmlns="http://www.w3.org/2000/svg"
   xmlns:svg="http://www.w3.org/2000/svg">
  <defs
     id="defs23" />
  <rect
     style="fill:#ffffff;fill-opacity:1;stroke-width:1.00877"
     id="rect31"
     width="600.34808"
     height="599.94757"
     x="-4.9999693e-09"
     y="0.40049917" />
  <g
     id="g31">
    <g
       id="g1"
       transform="translate(52.064876,195.04304)">
      <path
         style="opacity:1"
         fill="#070707"
         d="m 172.5,6.5 c 6.333,0 12.667,0 19,0 -0.329,34.2397 0.004,68.4064 1,102.5 -6.658,0.5 -13.325,0.666 -20,0.5 0,-34.3333 0,-68.6667 0,-103 z"
         id="path1" />
    </g>
    <g
       id="g2"
       transform="translate(52.064876,195.04304)">
      <path
         style="opacity:0.984"
         fill="#000000"
         d="m 30.5,7.5 c 0,78.3333 0,156.667 0,235 -6.3333,0 -12.6667,0 -19,0 0,-78.333 0,-156.6667 0,-235 6.3333,0 12.6667,0 19,0 z"
         id="path2" />
    </g>
    <g
       id="g3"
       transform="translate(52.064876,195.04304)">
      <path
         style="opacity:1"
         fill="#010101"
         d="m 48.5,8.5 c 6.3333,0 12.6667,0 19,0 0,78 0,156 0,234 -6,0 -12,0 -18,0 -0.9993,-77.832 -1.3326,-155.8316 -1,-234 z"
         id="path3" />
    </g>
    <g
       id="g4"
       transform="translate(52.064876,195.04304)">
      <path
         style="opacity:1"
         fill="#020202"
         d="m 87.5,8.5 c 24,0 48,0 72,0 0,5.3333 0,10.6667 0,16 -17.333,0 -34.667,0 -52,0 -0.992,7.8159 -1.326,15.8159 -1,24 11.667,0 23.333,0 35,0 0,5.3333 0,10.6667 0,16 -11.845,-0.3283 -23.512,0.0051 -35,1 -0.166,9.0062 0,18.0062 0.5,27 18.09,-0.9924 36.257,-1.3257 54.5,-1 0,5.6667 0,11.333 0,17 -24.667,0 -49.333,0 -74,0 0,-33.3333 0,-66.6667 0,-100 z"
         id="path4" />
    </g>
    <g
       id="g5"
       transform="translate(52.064876,195.04304)">
      <path
         style="opacity:0.694"
         fill="#333333"
         d="m 48.5,8.5 c 6.479,-0.99071 13.1457,-1.32404 20,-1 0,78.6667 0,157.333 0,236 -6.5221,0.323 -12.8554,-0.01 -19,-1 6,0 12,0 18,0 0,-78 0,-156 0,-234 -6.3333,0 -12.6667,0 -19,0 z"
         id="path5" />
    </g>
    <g
       id="g6"
       transform="translate(52.064876,195.04304)">
      <path
         style="opacity:0.047"
         fill="#3d3d3d"
         d="m 87.5,8.5 c 0,-0.33333 0,-0.66667 0,-1 24.333,0 48.667,0 73,0 0,6 0,12 0,18 -17.841,0.3301 -35.508,-0.0033 -53,-1 17.333,0 34.667,0 52,0 0,-5.3333 0,-10.6667 0,-16 -24,0 -48,0 -72,0 z"
         id="path6" />
    </g>
    <g
       id="g7"
       transform="translate(52.064876,195.04304)">
      <path
         style="opacity:0.988"
         fill="#090909"
         d="m 231.5,35.5 c 19.087,-2.2146 32.254,5.4521 39.5,23 1.288,6.9369 1.788,13.9369 1.5,21 -17,0 -34,0 -51,0 0.078,7.5756 3.745,12.4089 11,14.5 11.034,2.9477 19.034,-0.5523 24,-10.5 5.617,1.9724 10.95,4.3057 16,7 -5.165,11.091 -13.831,17.591 -26,19.5 -31.001,1.999 -45.834,-12.5012 -44.5,-43.5 3.62,-16.4489 13.453,-26.7822 29.5,-31 z m 5,15 c 9.474,0.3034 15.14,5.1368 17,14.5 -10.661,0.4998 -21.328,0.6665 -32,0.5 1.366,-8.6992 6.366,-13.6992 15,-15 z"
         id="path7" />
    </g>
    <g
       id="g8"
       transform="translate(52.064876,195.04304)">
      <path
         style="opacity:0.989"
         fill="#080809"
         d="m 372.5,35.5 c 29.446,-0.2168 43.113,14.4499 41,44 -17,0 -34,0 -51,0 -0.02,7.121 3.313,11.9543 10,14.5 11.379,3.1657 19.713,-0.3343 25,-10.5 5.617,1.9724 10.95,4.3057 16,7 -5.165,11.091 -13.831,17.591 -26,19.5 -15.344,2.461 -28.177,-2.039 -38.5,-13.5 -10.941,-20.46 -8.108,-38.6266 8.5,-54.5 4.642,-3.2601 9.642,-5.4268 15,-6.5 z m 5,15 c 9.859,0.1924 15.192,5.1924 16,15 -10.333,0 -20.667,0 -31,0 1.393,-8.7268 6.393,-13.7268 15,-15 z"
         id="path8" />
    </g>
    <g
       id="g9"
       transform="translate(52.064876,195.04304)">
      <path
         style="opacity:0.999"
         fill="#070707"
         d="m 442.5,46.5 c -1.273,0.5768 -1.273,1.2435 0,2 0.798,-0.4569 1.131,-1.1236 1,-2 4.286,-7.8132 10.953,-11.4798 20,-11 13.472,0.6289 21.639,7.6289 24.5,21 0.5,17.6635 0.667,35.3302 0.5,53 -6.59,0.311 -13.09,-0.022 -19.5,-1 -0.333,-16.3333 -0.667,-32.6667 -1,-49 -1.711,-5.3578 -5.378,-7.6912 -11,-7 -6.914,-0.0925 -11.247,3.2409 -13,10 -1.42,15.6175 -1.92,31.2841 -1.5,47 -6.333,0 -12.667,0 -19,0 0,-24.3333 0,-48.6667 0,-73 6.333,0 12.667,0 19,0 0,3.3333 0,6.6667 0,10 z"
         id="path9" />
    </g>
    <g
       id="g10"
       transform="translate(52.064876,195.04304)">
      <path
         style="opacity:0.999"
         fill="#0e0e0e"
         d="m 318.5,106.5 c -6.045,1.893 -12.379,2.56 -19,2 -8.795,-23.716 -17.795,-47.3827 -27,-71 6.667,-1.3333 13.333,-1.3333 20,0 5.789,15.8659 11.289,31.8659 16.5,48 5.471,-15.9126 10.638,-31.9126 15.5,-48 6.642,-1.1642 13.308,-1.3309 20,-0.5 -8.592,23.2874 -17.259,46.4541 -26,69.5 z"
         id="path10" />
    </g>
    <g
       id="g11"
       transform="translate(52.064876,195.04304)">
      <path
         style="opacity:0.565"
         fill="#5e5e5f"
         d="m 442.5,46.5 c 0.333,0 0.667,0 1,0 0.131,0.8764 -0.202,1.5431 -1,2 -1.273,-0.7565 -1.273,-1.4232 0,-2 z"
         id="path11" />
    </g>
    <g
       id="g12"
       transform="translate(52.064876,195.04304)">
      <path
         style="opacity:0.617"
         fill="#414141"
         d="m 141.5,48.5 c 0.989,5.4753 1.322,11.142 1,17 -12,0 -24,0 -36,0 11.488,-0.9949 23.155,-1.3283 35,-1 0,-5.3333 0,-10.6667 0,-16 z"
         id="path12" />
    </g>
    <g
       id="g13"
       transform="translate(52.064876,195.04304)">
      <path
         style="opacity:0.082"
         fill="#6a6a6a"
         d="m 87.5,7.5 c 0,0.33333 0,0.66667 0,1 0,33.3333 0,66.6667 0,100 24.667,0 49.333,0 74,0 0,-5.667 0,-11.3333 0,-17 0.99,5.81 1.323,11.81 1,18 -25.333,0 -50.667,0 -76,0 -0.3317,-34.1708 0.0017,-68.1708 1,-102 z"
         id="path13" />
    </g>
    <g
       id="g14"
       transform="translate(52.064876,195.04304)">
      <path
         style="opacity:0.027"
         fill="#686868"
         d="m 318.5,106.5 c 0,1 0,2 0,3 -6.522,0.323 -12.855,-0.01 -19,-1 6.621,0.56 12.955,-0.107 19,-2 z"
         id="path14" />
    </g>
    <g
       id="g15"
       transform="translate(52.465375,193.84154)">
      <path
         style="opacity:0.993"
         fill="#070707"
         d="m 258.5,235.5 c -0.283,-0.789 -0.783,-1.456 -1.5,-2 -0.498,2.982 -0.665,5.982 -0.5,9 -5.81,0.99 -11.81,1.323 -18,1 0,-34.667 0,-69.333 0,-104 6.333,0 12.667,0 19,0 -0.167,13.004 0,26.004 0.5,39 5.488,-6.657 12.655,-9.991 21.5,-10 21.075,3.578 31.408,16.078 31,37.5 0.958,19.458 -7.709,32.125 -26,38 -10.285,1.769 -18.952,-1.064 -26,-8.5 z m 9,-50 c 12.027,-2.251 19.527,2.416 22.5,14 2.378,10.334 -0.122,19.168 -7.5,26.5 -13.253,5.29 -21.753,1.123 -25.5,-12.5 -2.556,-11.878 0.944,-21.211 10.5,-28 z"
         id="path15" />
    </g>
    <g
       id="g16"
       transform="translate(52.064876,195.04304)">
      <path
         style="opacity:1"
         fill="#030303"
         d="m 106.5,225.5 c 15.333,0 30.667,0 46,0 0,6 0,12 0,18 -21.667,0 -43.333,0 -65,0 0,-33.667 0,-67.333 0,-101 6,0 12,0 18,0 -0.331,27.838 0.002,55.505 1,83 z"
         id="path16" />
    </g>
    <g
       id="g17"
       transform="translate(52.064876,195.04304)">
      <path
         style="opacity:0.647"
         fill="#4d4d4d"
         d="m 106.5,225.5 c -0.998,-27.495 -1.331,-55.162 -1,-83 -6,0 -12,0 -18,0 0,33.667 0,67.333 0,101 -0.9983,-33.829 -1.3317,-67.829 -1,-102 6.6667,0 13.3333,0 20,0 0,28 0,56 0,84 z"
         id="path17" />
    </g>
    <g
       id="g18"
       transform="translate(52.064876,195.04304)">
      <path
         style="opacity:0.995"
         fill="#0a0a0a"
         d="m 337.5,195.5 c 1.82,1.961 3.82,2.294 6,1 9.918,1.354 19.251,4.521 28,9.5 7.463,7.35 8.963,15.85 4.5,25.5 -8.187,10.672 -19.02,15.172 -32.5,13.5 -11.16,-1.575 -20.16,-6.741 -27,-15.5 4.834,-3.252 9.834,-6.252 15,-9 5.943,7.261 13.609,10.094 23,8.5 4.708,-1.771 6.042,-4.937 4,-9.5 -9.478,-3.268 -19.145,-6.101 -29,-8.5 -12.013,-6.373 -15.513,-15.873 -10.5,-28.5 9.563,-12.521 22.063,-16.688 37.5,-12.5 8.71,2.355 15.71,7.189 21,14.5 -4.63,2.986 -9.297,5.986 -14,9 -7.558,-9.399 -16.725,-11.399 -27.5,-6 -0.891,2.998 -0.391,5.664 1.5,8 z"
         id="path18" />
    </g>
    <g
       id="g19"
       transform="translate(52.064876,195.04304)">
      <path
         style="opacity:0.998"
         fill="#080808"
         d="m 225.5,190.5 c -0.997,17.159 -1.33,34.492 -1,52 -5.344,0.166 -10.677,-0.001 -16,-0.5 -0.599,-1.622 -1.266,-3.122 -2,-4.5 0.131,-0.739 -0.036,-1.406 -0.5,-2 -9.585,8.946 -20.751,11.446 -33.5,7.5 -10.567,-4.296 -15.067,-12.129 -13.5,-23.5 2.651,-9.978 9.151,-15.812 19.5,-17.5 8.62,-2.214 17.286,-4.214 26,-6 3.358,-1.895 3.858,-4.395 1.5,-7.5 -7.949,-5.323 -15.949,-5.323 -24,0 -1.341,2.522 -2.174,5.189 -2.5,8 -6.333,0 -12.667,0 -19,0 1.47,-14.641 9.47,-23.475 24,-26.5 9.158,-1.093 18.158,-0.426 27,2 7.447,4.061 12.114,10.228 14,18.5 z m -19,17 c 2.384,13.972 -3.616,21.639 -18,23 -7.677,0.159 -10.844,-3.508 -9.5,-11 0.785,-1.786 1.951,-3.286 3.5,-4.5 8.212,-2.213 16.212,-4.713 24,-7.5 z"
         id="path19" />
    </g>
    <g
       id="g20"
       transform="translate(52.064876,195.04304)">
      <path
         style="opacity:0.612"
         fill="#212121"
         d="m 225.5,190.5 c 0,17.667 0,35.333 0,53 -6.333,0 -12.667,0 -19,0 0,-2 0,-4 0,-6 0.734,1.378 1.401,2.878 2,4.5 5.323,0.499 10.656,0.666 16,0.5 -0.33,-17.508 0.003,-34.841 1,-52 z"
         id="path20" />
    </g>
    <g
       id="g21"
       transform="translate(52.064876,195.04304)">
      <path
         style="opacity:0.416"
         fill="#4a4a4b"
         d="m 337.5,195.5 c 2,0.333 4,0.667 6,1 -2.18,1.294 -4.18,0.961 -6,-1 z"
         id="path21" />
    </g>
    <g
       id="g22"
       transform="translate(52.064876,195.04304)">
      <path
         style="opacity:0.235"
         fill="#9c9c9d"
         d="m 258.5,235.5 c -0.667,2.333 -1.333,4.667 -2,7 -0.165,-3.018 0.002,-6.018 0.5,-9 0.717,0.544 1.217,1.211 1.5,2 z"
         id="path22" />
    </g>
    <g
       id="g23"
       transform="translate(52.064876,195.04304)">
      <path
         style="opacity:0.00899999"
         fill="#4c4c4c"
         d="m 30.5,7.5 c 0.9993,78.4982 1.3326,157.165 1,236 -6.8543,0.324 -13.521,-0.009 -20,-1 6.3333,0 12.6667,0 19,0 0,-78.333 0,-156.6667 0,-235 z"
         id="path23" />
    </g>
    <path
       style="fill:#ffffff;fill-opacity:0;stroke-width:0.400499"
       d="m 320.97169,422.60505 c -4.44169,-1.25933 -7.30343,-3.93159 -9.76799,-9.12126 -2.00978,-4.23202 -2.7338,-8.03075 -2.51303,-13.18499 0.30171,-7.04344 2.66339,-12.08673 7.95363,-16.98468 2.55015,-2.36105 2.99032,-2.6117 5.03495,-2.86716 5.32913,-0.66583 10.32224,0.49968 13.93029,3.25167 2.08582,1.59094 4.46651,5.4358 5.65188,9.1279 1.39643,4.34953 1.75953,10.90717 0.81289,14.68125 -0.9321,3.71611 -3.47531,8.64551 -5.80301,11.2477 -1.7846,1.99505 -2.32312,2.33223 -4.98886,3.1236 -3.76023,1.11629 -7.90485,1.40811 -10.31075,0.72597 z"
       id="path24" />
    <path
       style="fill:#ffffff;fill-opacity:0;stroke-width:0.400499"
       d="m 237.65732,425.11837 c -3.37296,-0.55914 -5.22108,-1.95298 -6.18937,-4.66798 -1.10912,-3.10988 -0.47334,-6.22597 1.75544,-8.60382 1.34717,-1.43727 1.98409,-1.71672 7.67679,-3.36819 3.41425,-0.99048 8.7554,-2.6665 11.86921,-3.72447 l 5.66149,-1.9236 0.24588,1.79389 c 0.59619,4.34973 -0.18834,9.31367 -1.94602,12.31292 -1.31529,2.24438 -4.26869,4.87377 -6.74919,6.00875 -3.67405,1.68111 -9.30288,2.67335 -12.32423,2.1725 z"
       id="path25" />
    <path
       style="fill:#ffffff;fill-opacity:0;stroke-width:0.400499"
       d="m 273.97284,259.48255 c 1.80076,-7.55182 5.76233,-11.65736 12.88742,-13.35576 1.62128,-0.38646 2.70116,-0.39813 4.696,-0.0507 6.63732,1.15584 10.67791,4.54842 12.86457,10.80141 l 0.92528,2.64592 -0.99476,0.26861 c -0.54712,0.14773 -7.66838,0.39969 -15.82502,0.55991 l -14.83025,0.29131 z"
       id="path26" />
    <path
       style="fill:#ffffff;fill-opacity:1;stroke-width:0.400499"
       d="m 414.96564,259.42326 c 1.84582,-7.69645 6.68668,-12.36681 14.03643,-13.54209 4.14298,-0.66249 10.49457,1.88576 13.04029,5.23173 1.55629,2.04552 3.11233,6.1714 3.11233,8.25242 v 1.15931 H 429.9281 414.7015 Z"
       id="path27" />
    <path
       style="fill:#ffffff;fill-opacity:1;stroke-width:0.400499"
       d="m 273.97284,259.48255 c 1.80076,-7.55182 5.76233,-11.65736 12.88742,-13.35576 1.62128,-0.38646 2.70116,-0.39813 4.696,-0.0507 6.63732,1.15584 10.67791,4.54842 12.86457,10.80141 l 0.92528,2.64592 -0.99476,0.26861 c -0.54712,0.14773 -7.66838,0.39969 -15.82502,0.55991 l -14.83025,0.29131 z"
       id="path28" />
    <path
       style="fill:#ffffff;fill-opacity:1;stroke-width:0.400499"
       d="m 237.65732,425.11837 c -3.37296,-0.55914 -5.22108,-1.95298 -6.18937,-4.66798 -1.10912,-3.10988 -0.47334,-6.22597 1.75544,-8.60382 1.34717,-1.43727 1.98409,-1.71672 7.67679,-3.36819 3.41425,-0.99048 8.7554,-2.6665 11.86921,-3.72447 l 5.66149,-1.9236 0.24588,1.79389 c 0.59619,4.34973 -0.18834,9.31367 -1.94602,12.31292 -1.31529,2.24438 -4.26869,4.87377 -6.74919,6.00875 -3.67405,1.68111 -9.30288,2.67335 -12.32423,2.1725 z"
       id="path29" />
  </g>
</svg>

<?xml version="1.0" encoding="UTF-8"?>
<!DOCTYPE svg PUBLIC "-//W3C//DTD SVG 1.1//EN" "http://www.w3.org/Graphics/SVG/1.1/DTD/svg11.dtd">
<svg xmlns="http://www.w3.org/2000/svg" version="1.1" width="500px" height="257px" style="shape-rendering:geometricPrecision; text-rendering:geometricPrecision; image-rendering:optimizeQuality; fill-rule:evenodd; clip-rule:evenodd" xmlns:xlink="http://www.w3.org/1999/xlink">
<g><path style="opacity:1" fill="#070707" d="M 172.5,6.5 C 178.833,6.5 185.167,6.5 191.5,6.5C 191.171,40.7397 191.504,74.9064 192.5,109C 185.842,109.5 179.175,109.666 172.5,109.5C 172.5,75.1667 172.5,40.8333 172.5,6.5 Z"/></g>
<g><path style="opacity:0.984" fill="#000000" d="M 30.5,7.5 C 30.5,85.8333 30.5,164.167 30.5,242.5C 24.1667,242.5 17.8333,242.5 11.5,242.5C 11.5,164.167 11.5,85.8333 11.5,7.5C 17.8333,7.5 24.1667,7.5 30.5,7.5 Z"/></g>
<g><path style="opacity:1" fill="#010101" d="M 48.5,8.5 C 54.8333,8.5 61.1667,8.5 67.5,8.5C 67.5,86.5 67.5,164.5 67.5,242.5C 61.5,242.5 55.5,242.5 49.5,242.5C 48.5007,164.668 48.1674,86.6684 48.5,8.5 Z"/></g>
<g><path style="opacity:1" fill="#020202" d="M 87.5,8.5 C 111.5,8.5 135.5,8.5 159.5,8.5C 159.5,13.8333 159.5,19.1667 159.5,24.5C 142.167,24.5 124.833,24.5 107.5,24.5C 106.508,32.3159 106.174,40.3159 106.5,48.5C 118.167,48.5 129.833,48.5 141.5,48.5C 141.5,53.8333 141.5,59.1667 141.5,64.5C 129.655,64.1717 117.988,64.5051 106.5,65.5C 106.334,74.5062 106.5,83.5062 107,92.5C 125.09,91.5076 143.257,91.1743 161.5,91.5C 161.5,97.1667 161.5,102.833 161.5,108.5C 136.833,108.5 112.167,108.5 87.5,108.5C 87.5,75.1667 87.5,41.8333 87.5,8.5 Z"/></g>
<g><path style="opacity:0.694" fill="#333333" d="M 48.5,8.5 C 54.979,7.50929 61.6457,7.17596 68.5,7.5C 68.5,86.1667 68.5,164.833 68.5,243.5C 61.9779,243.823 55.6446,243.49 49.5,242.5C 55.5,242.5 61.5,242.5 67.5,242.5C 67.5,164.5 67.5,86.5 67.5,8.5C 61.1667,8.5 54.8333,8.5 48.5,8.5 Z"/></g>
<g><path style="opacity:0.047" fill="#3d3d3d" d="M 87.5,8.5 C 87.5,8.16667 87.5,7.83333 87.5,7.5C 111.833,7.5 136.167,7.5 160.5,7.5C 160.5,13.5 160.5,19.5 160.5,25.5C 142.659,25.8301 124.992,25.4967 107.5,24.5C 124.833,24.5 142.167,24.5 159.5,24.5C 159.5,19.1667 159.5,13.8333 159.5,8.5C 135.5,8.5 111.5,8.5 87.5,8.5 Z"/></g>
<g><path style="opacity:0.988" fill="#090909" d="M 231.5,35.5 C 250.587,33.2854 263.754,40.9521 271,58.5C 272.288,65.4369 272.788,72.4369 272.5,79.5C 255.5,79.5 238.5,79.5 221.5,79.5C 221.578,87.0756 225.245,91.9089 232.5,94C 243.534,96.9477 251.534,93.4477 256.5,83.5C 262.117,85.4724 267.45,87.8057 272.5,90.5C 267.335,101.591 258.669,108.091 246.5,110C 215.499,111.999 200.666,97.4988 202,66.5C 205.62,50.0511 215.453,39.7178 231.5,35.5 Z M 236.5,50.5 C 245.974,50.8034 251.64,55.6368 253.5,65C 242.839,65.4998 232.172,65.6665 221.5,65.5C 222.866,56.8008 227.866,51.8008 236.5,50.5 Z"/></g>
<g><path style="opacity:0.989" fill="#080809" d="M 372.5,35.5 C 401.946,35.2832 415.613,49.9499 413.5,79.5C 396.5,79.5 379.5,79.5 362.5,79.5C 362.48,86.621 365.813,91.4543 372.5,94C 383.879,97.1657 392.213,93.6657 397.5,83.5C 403.117,85.4724 408.45,87.8057 413.5,90.5C 408.335,101.591 399.669,108.091 387.5,110C 372.156,112.461 359.323,107.961 349,96.5C 338.059,76.04 340.892,57.8734 357.5,42C 362.142,38.7399 367.142,36.5732 372.5,35.5 Z M 377.5,50.5 C 387.359,50.6924 392.692,55.6924 393.5,65.5C 383.167,65.5 372.833,65.5 362.5,65.5C 363.893,56.7732 368.893,51.7732 377.5,50.5 Z"/></g>
<g><path style="opacity:0.999" fill="#070707" d="M 442.5,46.5 C 441.227,47.0768 441.227,47.7435 442.5,48.5C 443.298,48.0431 443.631,47.3764 443.5,46.5C 447.786,38.6868 454.453,35.0202 463.5,35.5C 476.972,36.1289 485.139,43.1289 488,56.5C 488.5,74.1635 488.667,91.8302 488.5,109.5C 481.91,109.811 475.41,109.478 469,108.5C 468.667,92.1667 468.333,75.8333 468,59.5C 466.289,54.1422 462.622,51.8088 457,52.5C 450.086,52.4075 445.753,55.7409 444,62.5C 442.58,78.1175 442.08,93.7841 442.5,109.5C 436.167,109.5 429.833,109.5 423.5,109.5C 423.5,85.1667 423.5,60.8333 423.5,36.5C 429.833,36.5 436.167,36.5 442.5,36.5C 442.5,39.8333 442.5,43.1667 442.5,46.5 Z"/></g>
<g><path style="opacity:0.999" fill="#0e0e0e" d="M 318.5,106.5 C 312.455,108.393 306.121,109.06 299.5,108.5C 290.705,84.784 281.705,61.1173 272.5,37.5C 279.167,36.1667 285.833,36.1667 292.5,37.5C 298.289,53.3659 303.789,69.3659 309,85.5C 314.471,69.5874 319.638,53.5874 324.5,37.5C 331.142,36.3358 337.808,36.1691 344.5,37C 335.908,60.2874 327.241,83.4541 318.5,106.5 Z"/></g>
<g><path style="opacity:0.565" fill="#5e5e5f" d="M 442.5,46.5 C 442.833,46.5 443.167,46.5 443.5,46.5C 443.631,47.3764 443.298,48.0431 442.5,48.5C 441.227,47.7435 441.227,47.0768 442.5,46.5 Z"/></g>
<g><path style="opacity:0.617" fill="#414141" d="M 141.5,48.5 C 142.489,53.9753 142.822,59.642 142.5,65.5C 130.5,65.5 118.5,65.5 106.5,65.5C 117.988,64.5051 129.655,64.1717 141.5,64.5C 141.5,59.1667 141.5,53.8333 141.5,48.5 Z"/></g>
<g><path style="opacity:0.082" fill="#6a6a6a" d="M 87.5,7.5 C 87.5,7.83333 87.5,8.16667 87.5,8.5C 87.5,41.8333 87.5,75.1667 87.5,108.5C 112.167,108.5 136.833,108.5 161.5,108.5C 161.5,102.833 161.5,97.1667 161.5,91.5C 162.49,97.31 162.823,103.31 162.5,109.5C 137.167,109.5 111.833,109.5 86.5,109.5C 86.1683,75.3292 86.5017,41.3292 87.5,7.5 Z"/></g>
<g><path style="opacity:0.027" fill="#686868" d="M 318.5,106.5 C 318.5,107.5 318.5,108.5 318.5,109.5C 311.978,109.823 305.645,109.49 299.5,108.5C 306.121,109.06 312.455,108.393 318.5,106.5 Z"/></g>
<g><path style="opacity:0.993" fill="#070707" d="M 258.5,235.5 C 258.217,234.711 257.717,234.044 257,233.5C 256.502,236.482 256.335,239.482 256.5,242.5C 250.69,243.49 244.69,243.823 238.5,243.5C 238.5,208.833 238.5,174.167 238.5,139.5C 244.833,139.5 251.167,139.5 257.5,139.5C 257.333,152.504 257.5,165.504 258,178.5C 263.488,171.843 270.655,168.509 279.5,168.5C 300.575,172.078 310.908,184.578 310.5,206C 311.458,225.458 302.791,238.125 284.5,244C 274.215,245.769 265.548,242.936 258.5,235.5 Z M 267.5,185.5 C 279.527,183.249 287.027,187.916 290,199.5C 292.378,209.834 289.878,218.668 282.5,226C 269.247,231.29 260.747,227.123 257,213.5C 254.444,201.622 257.944,192.289 267.5,185.5 Z"/></g>
<g><path style="opacity:1" fill="#030303" d="M 106.5,225.5 C 121.833,225.5 137.167,225.5 152.5,225.5C 152.5,231.5 152.5,237.5 152.5,243.5C 130.833,243.5 109.167,243.5 87.5,243.5C 87.5,209.833 87.5,176.167 87.5,142.5C 93.5,142.5 99.5,142.5 105.5,142.5C 105.169,170.338 105.502,198.005 106.5,225.5 Z"/></g>
<g><path style="opacity:0.647" fill="#4d4d4d" d="M 106.5,225.5 C 105.502,198.005 105.169,170.338 105.5,142.5C 99.5,142.5 93.5,142.5 87.5,142.5C 87.5,176.167 87.5,209.833 87.5,243.5C 86.5017,209.671 86.1683,175.671 86.5,141.5C 93.1667,141.5 99.8333,141.5 106.5,141.5C 106.5,169.5 106.5,197.5 106.5,225.5 Z"/></g>
<g><path style="opacity:0.995" fill="#0a0a0a" d="M 337.5,195.5 C 339.32,197.461 341.32,197.794 343.5,196.5C 353.418,197.854 362.751,201.021 371.5,206C 378.963,213.35 380.463,221.85 376,231.5C 367.813,242.172 356.98,246.672 343.5,245C 332.34,243.425 323.34,238.259 316.5,229.5C 321.334,226.248 326.334,223.248 331.5,220.5C 337.443,227.761 345.109,230.594 354.5,229C 359.208,227.229 360.542,224.063 358.5,219.5C 349.022,216.232 339.355,213.399 329.5,211C 317.487,204.627 313.987,195.127 319,182.5C 328.563,169.979 341.063,165.812 356.5,170C 365.21,172.355 372.21,177.189 377.5,184.5C 372.87,187.486 368.203,190.486 363.5,193.5C 355.942,184.101 346.775,182.101 336,187.5C 335.109,190.498 335.609,193.164 337.5,195.5 Z"/></g>
<g><path style="opacity:0.998" fill="#080808" d="M 225.5,190.5 C 224.503,207.659 224.17,224.992 224.5,242.5C 219.156,242.666 213.823,242.499 208.5,242C 207.901,240.378 207.234,238.878 206.5,237.5C 206.631,236.761 206.464,236.094 206,235.5C 196.415,244.446 185.249,246.946 172.5,243C 161.933,238.704 157.433,230.871 159,219.5C 161.651,209.522 168.151,203.688 178.5,202C 187.12,199.786 195.786,197.786 204.5,196C 207.858,194.105 208.358,191.605 206,188.5C 198.051,183.177 190.051,183.177 182,188.5C 180.659,191.022 179.826,193.689 179.5,196.5C 173.167,196.5 166.833,196.5 160.5,196.5C 161.97,181.859 169.97,173.025 184.5,170C 193.658,168.907 202.658,169.574 211.5,172C 218.947,176.061 223.614,182.228 225.5,190.5 Z M 206.5,207.5 C 208.884,221.472 202.884,229.139 188.5,230.5C 180.823,230.659 177.656,226.992 179,219.5C 179.785,217.714 180.951,216.214 182.5,215C 190.712,212.787 198.712,210.287 206.5,207.5 Z"/></g>
<g><path style="opacity:0.612" fill="#212121" d="M 225.5,190.5 C 225.5,208.167 225.5,225.833 225.5,243.5C 219.167,243.5 212.833,243.5 206.5,243.5C 206.5,241.5 206.5,239.5 206.5,237.5C 207.234,238.878 207.901,240.378 208.5,242C 213.823,242.499 219.156,242.666 224.5,242.5C 224.17,224.992 224.503,207.659 225.5,190.5 Z"/></g>
<g><path style="opacity:0.416" fill="#4a4a4b" d="M 337.5,195.5 C 339.5,195.833 341.5,196.167 343.5,196.5C 341.32,197.794 339.32,197.461 337.5,195.5 Z"/></g>
<g><path style="opacity:0.235" fill="#9c9c9d" d="M 258.5,235.5 C 257.833,237.833 257.167,240.167 256.5,242.5C 256.335,239.482 256.502,236.482 257,233.5C 257.717,234.044 258.217,234.711 258.5,235.5 Z"/></g>
<g><path style="opacity:0.009" fill="#4c4c4c" d="M 30.5,7.5 C 31.4993,85.9982 31.8326,164.665 31.5,243.5C 24.6457,243.824 17.979,243.491 11.5,242.5C 17.8333,242.5 24.1667,242.5 30.5,242.5C 30.5,164.167 30.5,85.8333 30.5,7.5 Z"/></g>
</svg>
